src/categories-icons-sprite/categories/svg-cat-cosmetics-hardware.svg

<svg width="36" height="36" viewBox="0 0 36 36" fill="none" xmlns="http://www.w3.org/2000/svg">
<path class="p-80D0E1" d="M17.3843 26.0879L10.0296 21.1203C9.49401 20.7585 9.3531 20.0311 9.71486 19.4955L12.6279 15.1828C12.9896 14.6472 13.717 14.5063 14.2526 14.868L21.6073 19.8356C22.1429 20.1974 22.2838 20.9248 21.922 21.4604L19.009 25.7732C18.6474 26.3088 17.9199 26.4497 17.3843 26.0879Z" fill="#B9DFFC"/>
<path class="p-51B3DA" d="M21.6074 19.8356L17.9301 17.3518L13.707 23.6042L17.3843 26.088C17.9199 26.4497 18.6473 26.3088 19.0091 25.7732L21.9221 21.4605C22.2839 20.9248 22.143 20.1974 21.6074 19.8356Z" fill="#A1D1FD"/>
<path class="p-80D0E1" d="M12.1381 33.8572L4.78343 28.8896C4.24782 28.5279 4.10692 27.8005 4.46868 27.2649L7.38132 22.9526C7.74309 22.417 8.47048 22.2761 9.00608 22.6379L16.3607 27.6055C16.8963 27.9673 17.0372 28.6947 16.6754 29.2303L13.7628 33.5425C13.4011 34.078 12.6736 34.2189 12.1381 33.8572Z" fill="#B9DFFC"/>
<path class="p-51B3DA" d="M16.3589 27.6055L12.6815 25.1217L8.45887 31.3734L12.1362 33.8572C12.6718 34.219 13.3992 34.0781 13.761 33.5425L16.6736 29.2303C17.0354 28.6948 16.8945 27.9673 16.3589 27.6055Z" fill="#A1D1FD"/>
<path class="p-FF5E5B" d="M16.0185 30.2L6.72438 23.9223L10.3694 18.5259L19.6636 24.8035L16.0185 30.2Z" fill="#5FBEFF"/>
<path class="p-51B3DA" d="M20.2979 21.775L12.9434 16.8076C12.3242 16.3893 12.2502 15.5033 12.7933 14.9885L16.2921 11.6712C16.6011 9.34708 18.4896 7.52983 20.826 7.3104L24.234 2.26481C25.2281 0.793004 27.2342 0.40438 28.706 1.39851C30.1778 2.39262 30.5664 4.39876 29.5723 5.87052L26.1643 10.9161C26.8326 13.1631 25.8546 15.5947 23.8123 16.7503L22.0412 21.2351C21.7669 21.9303 20.918 22.1938 20.2979 21.775Z" fill="#A1D1FD"/>
<path class="p-FF423D" d="M11.3725 27.0612L16.0195 30.2L19.6644 24.8037L15.0174 21.6649L11.3725 27.0612Z" fill="#4D98CB"/>
<path class="p-39A3DB" d="M22.0401 21.2354L23.8112 16.7506C25.8517 15.5961 26.8322 13.1657 26.1632 10.9164L29.5712 5.87085C30.5653 4.39904 30.1767 2.3929 28.7049 1.39884L16.6195 19.2916L20.2967 21.7753C20.916 22.1936 21.7653 21.9313 22.0401 21.2354Z" fill="#65B3E7"/>
</svg>

<svg width="36" height="36" fill="none" xmlns="http://www.w3.org/2000/svg"><path class="p-80D0E1" d="M17.384 26.088L10.03 21.12a1.17 1.17 0 01-.315-1.625l2.913-4.312a1.17 1.17 0 011.625-.315l7.354 4.968a1.17 1.17 0 01.315 1.624l-2.913 4.313a1.17 1.17 0 01-1.625.315z" fill="#B9DFFC"/><path class="p-51B3DA" d="M21.607 19.836l-3.677-2.484-4.223 6.252 3.677 2.484a1.17 1.17 0 001.625-.315l2.913-4.313a1.17 1.17 0 00-.315-1.624z" fill="#A1D1FD"/><path class="p-80D0E1" d="M12.138 33.857L4.783 28.89a1.17 1.17 0 01-.314-1.625l2.912-4.312a1.17 1.17 0 011.625-.315l7.355 4.967a1.17 1.17 0 01.314 1.625l-2.912 4.312a1.17 1.17 0 01-1.625.315z" fill="#B9DFFC"/><path class="p-51B3DA" d="M16.359 27.605l-3.678-2.483-4.222 6.251 3.677 2.484a1.17 1.17 0 001.625-.315l2.913-4.312a1.17 1.17 0 00-.315-1.625z" fill="#A1D1FD"/><path class="p-FF5E5B" d="M16.018 30.2l-9.294-6.278 3.645-5.396 9.295 6.277-3.646 5.397z" fill="#5FBEFF"/><path class="p-51B3DA" d="M20.298 21.775l-7.355-4.967a1.17 1.17 0 01-.15-1.82l3.5-3.317a5.062 5.062 0 014.533-4.36l3.408-5.046c.994-1.472 3-1.86 4.472-.866 1.472.994 1.86 3 .866 4.472l-3.408 5.045a5.062 5.062 0 01-2.352 5.834l-1.77 4.485a1.17 1.17 0 01-1.744.54z" fill="#A1D1FD"/><path class="p-FF423D" d="M11.373 27.061L16.02 30.2l3.644-5.396-4.647-3.14-3.644 5.397z" fill="#4D98CB"/><path class="p-39A3DB" d="M22.04 21.235l1.771-4.484a5.061 5.061 0 002.352-5.835l3.408-5.045a3.225 3.225 0 00-.866-4.472L16.62 19.292l3.677 2.483a1.17 1.17 0 001.743-.54z" fill="#65B3E7"/></svg>
